X:6970
T:Hemiolas #2
R:Jig
O:New Zealand
M:6/8
I:speed 450
C:Mark Fitzsimons
A:Auckland
K:D
|:"D" afd afd|"G"g2 a2 b2|"D" afd afd|g2 f2 e2|
fga edc|e2 f2 g2|aba gfe|dce d3:|   
|:EFG ABc|dff gee|bag fed|cBA GFE|
DFA DFA|GAB AFD|C2 D2 E2|D2 E2 F2| E2 F2 G2|ABA GFE|FGE D3:|
W:
W:Copyright Mark Fitzsimons August 1997
W:markf@ihug.co.nz
